;FLAVOR:Marlin
;TIME:3089
;Filament used: 1.98691m
;Layer height: 0.2
;MINX:74
;MINY:76.5
;MINZ:0.2
;MAXX:146
;MAXY:143.5
;MAXZ:18
;Generated with Creality Slicer 4.8.2-279
M140 S60
M105
M190 S60
M104 S200
M105
M109 S200
M82 ;absolute extrusion mode

G28 ;Home

G92 E0 ;Reset Extruder
G1 Z2.0 F3000 ;Move Z Axis up
G1 X10.1 Y20 Z0.28 F5000.0 ;Move to start position
G1 X10.1 Y200.0 Z0.28 F1500.0 E15 ;Draw the first line
G1 X10.4 Y200.0 Z0.28 F5000.0 ;Move to side a little
G1 X10.4 Y20 Z0.28 F1500.0 E30 ;Draw the second line
G92 E0 ;Reset Extruder
G1 Z2.0 F3000 ;Move Z Axis up

G92 E0
G92 E0
G1 F3600 E-5
;LAYER_COUNT:90
;LAYER:0
M107
G0 F6000 X80.667 Y79.741 Z0.2
;TYPE:SKIRT
G1 F3600 E0
G1 F1200 X81.357 Y79.106 E0.03119
G1 X82.099 Y78.531 E0.06241
G1 X82.886 Y78.023 E0.09357
G1 X83.715 Y77.583 E0.12478
G1 X84.577 Y77.215 E0.15596
G1 X85.468 Y76.922 E0.18715
G1 X86.381 Y76.706 E0.21836
G1 X87.309 Y76.569 E0.24956
G1 X88.145 Y76.513 E0.27742
G1 X88.464 Y76.504 E0.28804
G1 X88.774 Y76.5 E0.29835
G1 X130.849 Y76.5 E1.69777
G1 X131.705 Y76.511 E1.72624
G1 X132.641 Y76.565 E1.75743
G1 X133.569 Y76.697 E1.7886
G1 X134.483 Y76.909 E1.81981
G1 X135.375 Y77.198 E1.851
G1 X136.24 Y77.561 E1.8822
G1 X137.07 Y77.997 E1.91338
G1 X137.861 Y78.502 E1.94459
G1 X138.605 Y79.073 E1.97579
G1 X139.298 Y79.705 E2.00698
G1 X139.935 Y80.393 E2.03817
G1 X140.51 Y81.134 E2.06936
G1 X141.021 Y81.92 E2.10054
G1 X141.463 Y82.748 E2.13176
G1 X141.832 Y83.61 E2.16295
G1 X142.127 Y84.5 E2.19413
G1 X142.345 Y85.412 E2.22532
G1 X142.485 Y86.34 E2.25653
G1 X142.543 Y87.201 E2.28524
G1 X142.552 Y87.521 E2.29588
G1 X142.556 Y87.83 E2.30616
G1 X142.556 Y88.576 E2.33097
G1 X142.593 Y91.184 E2.41773
G1 X142.7 Y93.705 E2.50165
G1 X142.877 Y96.2 E2.58484
G1 X143.125 Y98.7 E2.6684
G1 X143.444 Y101.193 E2.75199
G1 X143.835 Y103.686 E2.83593
G1 X144.298 Y106.176 E2.92016
G1 X144.822 Y108.612 E3.00304
G1 X145.508 Y111.377 E3.09779
G1 X145.626 Y111.911 E3.11598
G1 X145.735 Y112.468 E3.13486
G1 X145.841 Y113.111 E3.15653
G1 X145.853 Y113.2 E3.15952
G1 X145.936 Y114.085 E3.18908
G1 X145.969 Y114.705 E3.20973
G1 X145.983 Y115.099 E3.22285
G1 X146 Y116.152 E3.25787
G1 X146 Y126.055 E3.58725
G1 X145.98 Y127.313 E3.6291
G1 X145.944 Y128.039 E3.65327
G1 X145.908 Y128.472 E3.66772
G1 X145.821 Y129.215 E3.6926
G1 X145.76 Y129.616 E3.70609
G1 X145.615 Y130.384 E3.73209
G1 X145.536 Y130.734 E3.74402
G1 X145.361 Y131.408 E3.76718
G1 X145.251 Y131.783 E3.78018
G1 X145.02 Y132.484 E3.80473
G1 X144.842 Y132.968 E3.82188
G1 X144.488 Y133.819 E3.85254
G1 X144.426 Y133.952 E3.85742
G1 X144.148 Y134.506 E3.87804
G1 X143.87 Y135.024 E3.89759
G1 X143.471 Y135.708 E3.92393
G1 X143.395 Y135.828 E3.92865
G1 X142.997 Y136.413 E3.95218
G1 X142.73 Y136.78 E3.96728
G1 X142.277 Y137.361 E3.99178
G1 X141.993 Y137.701 E4.00652
G1 X141.484 Y138.269 E4.03188
G1 X141.241 Y138.522 E4.04355
G1 X140.713 Y139.036 E4.06806
G1 X140.434 Y139.29 E4.08061
G1 X139.839 Y139.794 E4.10654
G1 X139.494 Y140.066 E4.12116
G1 X138.896 Y140.506 E4.14585
G1 X138.516 Y140.766 E4.16116
G1 X137.842 Y141.192 E4.18768
G1 X137.703 Y141.273 E4.19303
G1 X137.084 Y141.608 E4.21644
G1 X136.564 Y141.868 E4.23578
G1 X135.99 Y142.134 E4.25682
G1 X135.89 Y142.177 E4.26044
G1 X135.066 Y142.493 E4.2898
G1 X134.557 Y142.665 E4.30767
G1 X133.843 Y142.88 E4.33247
G1 X133.449 Y142.984 E4.34602
G1 X132.747 Y143.145 E4.36997
G1 X132.429 Y143.207 E4.38075
G1 X131.672 Y143.327 E4.40624
G1 X131.259 Y143.378 E4.42008
G1 X130.504 Y143.445 E4.44529
G1 X130.078 Y143.468 E4.45948
G1 X129.674 Y143.482 E4.47293
G1 X128.555 Y143.5 E4.51015
G1 X91.445 Y143.5 E5.74444
G1 X90.187 Y143.48 E5.78628
G1 X89.461 Y143.444 E5.81046
G1 X89.028 Y143.408 E5.82491
G1 X88.285 Y143.321 E5.84979
G1 X87.884 Y143.26 E5.86328
G1 X87.116 Y143.115 E5.88928
G1 X86.766 Y143.036 E5.90121
G1 X86.092 Y142.861 E5.92437
G1 X85.717 Y142.751 E5.93737
G1 X85.016 Y142.52 E5.96192
G1 X84.532 Y142.342 E5.97907
G1 X83.632 Y141.965 E6.01152
G1 X83.488 Y141.897 E6.01682
G1 X82.972 Y141.636 E6.03605
G1 X82.461 Y141.361 E6.05535
G1 X81.815 Y140.985 E6.08021
G1 X81.699 Y140.912 E6.08477
G1 X81.082 Y140.494 E6.10956
G1 X80.714 Y140.226 E6.1247
G1 X80.134 Y139.772 E6.1492
G1 X79.786 Y139.481 E6.16429
G1 X79.211 Y138.965 E6.18998
G1 X78.966 Y138.729 E6.2013
G1 X78.463 Y138.212 E6.22529
G1 X78.209 Y137.933 E6.23784
G1 X77.705 Y137.338 E6.26377
G1 X77.433 Y136.993 E6.27839
G1 X76.983 Y136.381 E6.30365
G1 X76.717 Y135.991 E6.31935
G1 X76.301 Y135.331 E6.3453
G1 X76.227 Y135.204 E6.35019
G1 X75.885 Y134.57 E6.37415
G1 X75.625 Y134.048 E6.39355
G1 X75.386 Y133.537 E6.41231
G1 X75.342 Y133.436 E6.41597
G1 X75.004 Y132.558 E6.44726
G1 X74.833 Y132.051 E6.46506
G1 X74.62 Y131.343 E6.48965
G1 X74.516 Y130.949 E6.5032
G1 X74.355 Y130.247 E6.52716
G1 X74.293 Y129.929 E6.53794
G1 X74.173 Y129.172 E6.56343
G1 X74.122 Y128.759 E6.57727
G1 X74.055 Y128.004 E6.60248
G1 X74.032 Y127.578 E6.61667
G1 X74.018 Y127.174 E6.63011
G1 X74 Y126.056 E6.6673
G1 X74 Y116.153 E6.99668
G1 X74.019 Y114.947 E7.03679
G1 X74.055 Y114.22 E7.061
G1 X74.104 Y113.63 E7.0807
G1 X74.174 Y113 E7.10178
G1 X74.188 Y112.901 E7.1051
G1 X74.35 Y112.019 E7.13493
G1 X74.501 Y111.35 E7.15774
G1 X74.546 Y111.159 E7.16427
G1 X75.179 Y108.57 E7.25291
G1 X75.715 Y106.081 E7.3376
G1 X76.167 Y103.642 E7.4201
G1 X76.557 Y101.147 E7.50409
G1 X76.878 Y98.635 E7.58832
G1 X77.125 Y96.135 E7.67188
G1 X77.303 Y93.607 E7.75616
G1 X77.408 Y91.119 E7.83899
G1 X77.444 Y88.544 E7.92464
G1 X77.446 Y87.992 E7.943
G1 X77.457 Y87.327 E7.96512
G1 X77.512 Y86.391 E7.99631
G1 X77.647 Y85.463 E8.0275
G1 X77.861 Y84.55 E8.05869
G1 X78.151 Y83.658 E8.08989
G1 X78.517 Y82.794 E8.12109
G1 X78.954 Y81.965 E8.15226
G1 X79.461 Y81.176 E8.18346
G1 X80.033 Y80.432 E8.21467
G1 X80.667 Y79.741 E8.24586
G0 F6000 X81.058 Y79.916
G1 F1200 X81.745 Y79.303 E8.27648
G1 X82.482 Y78.752 E8.30709
G1 X83.265 Y78.267 E8.33772
G1 X84.086 Y77.851 E8.36834
G1 X84.941 Y77.508 E8.39898
G1 X85.822 Y77.241 E8.42959
G1 X86.723 Y77.051 E8.46022
G1 X87.637 Y76.941 E8.49084
G1 X88.156 Y76.913 E8.50813
G1 X88.475 Y76.904 E8.51874
G1 X88.774 Y76.9 E8.52869
G1 X130.849 Y76.9 E9.92811
G1 X131.699 Y76.911 E9.95638
G1 X132.618 Y76.964 E9.987
G1 X133.529 Y77.097 E10.01762
G1 X134.425 Y77.308 E10.04824
G1 X135.299 Y77.596 E10.07884
G1 X136.146 Y77.959 E10.10949
G1 X136.957 Y78.394 E10.1401
G1 X137.727 Y78.898 E10.17071
G1 X138.451 Y79.467 E10.20134
G1 X139.123 Y80.097 E10.23197
G1 X139.738 Y80.782 E10.26259
G1 X140.291 Y81.518 E10.29321
G1 X140.778 Y82.299 E10.32382
G1 X141.195 Y83.12 E10.35445
G1 X141.54 Y83.974 E10.38508
G1 X141.809 Y84.854 E10.41569
G1 X142.001 Y85.755 E10.44633
G1 X142.114 Y86.668 E10.47693
G1 X142.143 Y87.212 E10.49505
G1 X142.152 Y87.532 E10.5057
G1 X142.156 Y87.83 E10.51561
G1 X142.156 Y88.582 E10.54062
G1 X142.193 Y91.207 E10.62794
G1 X142.3 Y93.715 E10.71143
G1 X142.478 Y96.235 E10.79545
G1 X142.727 Y98.75 E10.87951
G1 X143.046 Y101.239 E10.96297
G1 X143.447 Y103.791 E11.04889
G1 X143.899 Y106.222 E11.13114
G1 X144.438 Y108.726 E11.21633
G1 X145.119 Y111.473 E11.31046
G1 X145.234 Y111.988 E11.32801
G1 X145.343 Y112.545 E11.34689
G1 X145.445 Y113.165 E11.36778
G1 X145.457 Y113.254 E11.37077
G1 X145.537 Y114.107 E11.39927
G1 X145.57 Y114.727 E11.41992
G1 X145.583 Y115.106 E11.43253
G1 X145.6 Y116.152 E11.46732
G1 X145.599 Y126.233 E11.80262
G1 X145.581 Y127.306 E11.83831
G1 X145.546 Y128.006 E11.86162
G1 X145.51 Y128.439 E11.87608
G1 X145.425 Y129.155 E11.90006
G1 X145.364 Y129.556 E11.91355
G1 X145.225 Y130.296 E11.93859
G1 X145.146 Y130.646 E11.95052
G1 X144.977 Y131.296 E11.97286
G1 X144.867 Y131.671 E11.98586
G1 X144.645 Y132.346 E12.00949
G1 X144.467 Y132.83 E12.02665
G1 X144.125 Y133.65 E12.0562
G1 X144.063 Y133.783 E12.06108
G1 X143.796 Y134.317 E12.08093
G1 X143.518 Y134.835 E12.10049
G1 X143.133 Y135.494 E12.12587
G1 X143.057 Y135.614 E12.1306
G1 X142.674 Y136.178 E12.15327
G1 X142.407 Y136.545 E12.16837
G1 X141.97 Y137.104 E12.19197
G1 X141.686 Y137.444 E12.2067
G1 X141.196 Y137.992 E12.23115
G1 X140.953 Y138.245 E12.24282
G1 X140.444 Y138.74 E12.26643
G1 X140.165 Y138.994 E12.27898
G1 X139.592 Y139.48 E12.30397
G1 X139.247 Y139.752 E12.31859
G1 X138.67 Y140.176 E12.3424
G1 X138.29 Y140.436 E12.35771
G1 X137.641 Y140.846 E12.38325
G1 X137.502 Y140.927 E12.3886
G1 X136.905 Y141.25 E12.41117
G1 X136.385 Y141.51 E12.43051
G1 X135.832 Y141.767 E12.45079
G1 X135.732 Y141.81 E12.45441
G1 X134.938 Y142.114 E12.48269
G1 X134.429 Y142.286 E12.50056
G1 X133.741 Y142.493 E12.52446
G1 X133.347 Y142.597 E12.53801
G1 X132.67 Y142.752 E12.56111
G1 X132.352 Y142.814 E12.57189
G1 X131.623 Y142.93 E12.59644
G1 X131.21 Y142.981 E12.61028
G1 X130.482 Y143.046 E12.63459
G1 X130.056 Y143.069 E12.64878
G1 X129.667 Y143.082 E12.66172
G1 X128.555 Y143.1 E12.69871
G1 X91.267 Y143.099 E13.93892
G1 X90.194 Y143.081 E13.97461
G1 X89.494 Y143.046 E13.99792
G1 X89.061 Y143.01 E14.01237
G1 X88.345 Y142.925 E14.03635
G1 X87.944 Y142.864 E14.04985
G1 X87.204 Y142.725 E14.07489
G1 X86.854 Y142.646 E14.08682
G1 X86.204 Y142.477 E14.10916
G1 X85.829 Y142.367 E14.12216
G1 X85.154 Y142.145 E14.14579
G1 X84.67 Y141.967 E14.16294
G1 X83.803 Y141.603 E14.19422
G1 X83.659 Y141.535 E14.19952
G1 X83.162 Y141.284 E14.21803
G1 X82.651 Y141.009 E14.23733
G1 X82.028 Y140.646 E14.26132
G1 X81.912 Y140.573 E14.26588
G1 X81.318 Y140.171 E14.28973
G1 X80.95 Y139.903 E14.30487
G1 X80.39 Y139.466 E14.3285
G1 X80.042 Y139.175 E14.34359
G1 X79.488 Y138.677 E14.36836
G1 X79.243 Y138.441 E14.37968
G1 X78.759 Y137.943 E14.40277
G1 X78.505 Y137.664 E14.41532
G1 X78.019 Y137.091 E14.44031
G1 X77.747 Y136.746 E14.45493
G1 X77.314 Y136.156 E14.47927
G1 X77.048 Y135.766 E14.49497
G1 X76.646 Y135.13 E14.51999
G1 X76.572 Y135.003 E14.52488
G1 X76.243 Y134.392 E14.54796
G1 X75.983 Y133.87 E14.56736
G1 X75.753 Y133.378 E14.58542
G1 X75.709 Y133.277 E14.58909
G1 X75.383 Y132.431 E14.61924
G1 X75.212 Y131.924 E14.63704
G1 X75.007 Y131.241 E14.66076
G1 X74.903 Y130.847 E14.67431
G1 X74.748 Y130.17 E14.69741
G1 X74.686 Y129.852 E14.70818
G1 X74.57 Y129.123 E14.73274
G1 X74.519 Y128.71 E14.74658
G1 X74.454 Y127.982 E14.77089
G1 X74.431 Y127.556 E14.78508
G1 X74.418 Y127.168 E14.79799
G1 X74.4 Y126.056 E14.83498
G1 X74.401 Y115.977 E15.17021
G1 X74.418 Y114.954 E15.20424
G1 X74.453 Y114.253 E15.22758
G1 X74.502 Y113.663 E15.24727
G1 X74.57 Y113.056 E15.26759
G1 X74.584 Y112.957 E15.27091
G1 X74.74 Y112.107 E15.29966
G1 X74.934 Y111.254 E15.32875
G1 X75.572 Y108.643 E15.41815
G1 X76.105 Y106.167 E15.50239
G1 X76.562 Y103.705 E15.58567
G1 X76.955 Y101.193 E15.67024
G1 X77.275 Y98.688 E15.75423
G1 X77.524 Y96.166 E15.83852
G1 X77.701 Y93.651 E15.92238
G1 X77.808 Y91.106 E16.0071
G1 X77.844 Y88.55 E16.09212
G1 X77.845 Y87.999 E16.11045
G1 X77.856 Y87.334 E16.13257
G1 X77.912 Y86.415 E16.16319
G1 X78.046 Y85.504 E16.19382
G1 X78.26 Y84.608 E16.22446
G1 X78.55 Y83.735 E16.25505
G1 X78.915 Y82.889 E16.2857
G1 X79.351 Y82.079 E16.31629
G1 X79.857 Y81.309 E16.34694
G1 X80.427 Y80.587 E16.37753
G1 X81.058 Y79.916 E16.40817
G0 F6000 X81.449 Y80.096
G1 F1200 X82.132 Y79.505 E16.43821
G1 X82.865 Y78.977 E16.46826
G1 X83.642 Y78.516 E16.49831
G1 X84.456 Y78.126 E16.52833
G1 X85.302 Y77.809 E16.55838
G1 X86.172 Y77.568 E16.5884
G1 X87.06 Y77.405 E16.61843
G1 X88.167 Y77.313 E16.65538
G1 X88.486 Y77.304 E16.66599
G1 X88.774 Y77.3 E16.67557
G1 X130.849 Y77.3 E18.07499
G1 X131.693 Y77.311 E18.10306
G1 X132.595 Y77.364 E18.13312
G1 X133.488 Y77.496 E18.16314
G1 X134.366 Y77.707 E18.19317
G1 X135.222 Y77.995 E18.22321
G1 X136.049 Y78.357 E18.25324
G1 X136.841 Y78.792 E18.28329
G1 X137.592 Y79.294 E18.31334
G1 X138.295 Y79.861 E18.34338
G1 X138.945 Y80.488 E18.37341
G1 X139.537 Y81.17 E18.40345
G1 X140.067 Y81.901 E18.43348
G1 X140.529 Y82.677 E18.46352
G1 X140.922 Y83.49 E18.49356
G1 X141.24 Y84.335 E18.52358
G1 X141.483 Y85.205 E18.55363
G1 X141.648 Y86.093 E18.58367
G1 X141.743 Y87.223 E18.62139
G1 X141.752 Y87.543 E18.63203
G1 X141.756 Y87.83 E18.64158
G1 X141.756 Y88.588 E18.66679
G1 X141.793 Y91.194 E18.75348
G1 X141.902 Y93.759 E18.83886
G1 X142.08 Y96.266 E18.92246
G1 X142.331 Y98.807 E19.00738
G1 X142.652 Y101.315 E19.09148
G1 X143.046 Y103.82 E19.17582
G1 X143.508 Y106.307 E19.25995
G1 X144.047 Y108.809 E19.34508
G1 X144.731 Y111.569 E19.43965
G1 X144.841 Y112.065 E19.45655
G1 X144.95 Y112.622 E19.47543
G1 X145.049 Y113.218 E19.49552
G1 X145.061 Y113.307 E19.49851
G1 X145.138 Y114.128 E19.52594
G1 X145.171 Y114.748 E19.54659
G1 X145.183 Y115.113 E19.55873
G1 X145.2 Y116.152 E19.5933
G1 X145.199 Y126.226 E19.92836
G1 X145.181 Y127.299 E19.96405
G1 X145.147 Y127.973 E19.9865
G1 X145.111 Y128.406 E20.00095
G1 X145.03 Y129.095 E20.02402
G1 X144.969 Y129.496 E20.03751
G1 X144.835 Y130.208 E20.06161
G1 X144.756 Y130.558 E20.07355
G1 X144.594 Y131.183 E20.09502
G1 X144.484 Y131.558 E20.10802
G1 X144.269 Y132.208 E20.13079
G1 X144.091 Y132.692 E20.14794
G1 X143.763 Y133.481 E20.17636
G1 X143.701 Y133.614 E20.18124
G1 X143.443 Y134.127 E20.20034
G1 X143.165 Y134.645 E20.21989
G1 X142.795 Y135.28 E20.24434
G1 X142.719 Y135.4 E20.24906
G1 X142.35 Y135.943 E20.2709
G1 X142.083 Y136.31 E20.28599
G1 X141.663 Y136.848 E20.30869
G1 X141.379 Y137.188 E20.32343
G1 X140.907 Y137.715 E20.34696
G1 X140.664 Y137.968 E20.35863
G1 X140.175 Y138.444 E20.38132
G1 X139.896 Y138.698 E20.39387
G1 X139.344 Y139.166 E20.41794
G1 X138.999 Y139.438 E20.43255
G1 X138.444 Y139.846 E20.45546
G1 X138.064 Y140.106 E20.47078
G1 X137.44 Y140.501 E20.49534
G1 X137.301 Y140.582 E20.50069
G1 X136.727 Y140.892 E20.52239
G1 X136.207 Y141.152 E20.54173
G1 X135.674 Y141.399 E20.56127
G1 X135.574 Y141.442 E20.56489
G1 X134.81 Y141.735 E20.5921
G1 X134.301 Y141.907 E20.60997
G1 X133.639 Y142.106 E20.63296
G1 X133.245 Y142.21 E20.64652
G1 X132.594 Y142.359 E20.66873
G1 X132.276 Y142.421 E20.6795
G1 X131.574 Y142.533 E20.70315
G1 X131.161 Y142.584 E20.71699
G1 X130.461 Y142.646 E20.74036
G1 X130.035 Y142.669 E20.75455
G1 X129.66 Y142.682 E20.76703
G1 X128.555 Y142.7 E20.80379
G1 X91.274 Y142.699 E22.04376
G1 X90.201 Y142.681 E22.07945
G1 X89.527 Y142.647 E22.1019
G1 X89.094 Y142.611 E22.11635
G1 X88.405 Y142.53 E22.13942
G1 X88.004 Y142.469 E22.15292
G1 X87.292 Y142.335 E22.17701
G1 X86.942 Y142.256 E22.18895
G1 X86.317 Y142.094 E22.21042
G1 X85.942 Y141.984 E22.22342
G1 X85.292 Y141.769 E22.24619
G1 X84.808 Y141.591 E22.26334
G1 X83.974 Y141.241 E22.29342
G1 X83.83 Y141.173 E22.29872
G1 X83.351 Y140.932 E22.31656
G1 X82.84 Y140.657 E22.33586
G1 X82.241 Y140.308 E22.35891
G1 X82.125 Y140.235 E22.36347
G1 X81.553 Y139.847 E22.38646
G1 X81.185 Y139.579 E22.4016
G1 X80.647 Y139.159 E22.4243
G1 X80.299 Y138.868 E22.43939
G1 X79.766 Y138.389 E22.46323
G1 X79.521 Y138.153 E22.47454
G1 X79.055 Y137.674 E22.49677
G1 X78.801 Y137.395 E22.50932
G1 X78.333 Y136.843 E22.53339
G1 X78.061 Y136.498 E22.548
G1 X77.644 Y135.93 E22.57144
G1 X77.378 Y135.54 E22.58714
G1 X76.992 Y134.928 E22.6112
G1 X76.918 Y134.801 E22.61609
G1 X76.601 Y134.214 E22.63828
G1 X76.341 Y133.692 E22.65768
G1 X76.12 Y133.218 E22.67507
G1 X76.076 Y133.117 E22.67874
G1 X75.762 Y132.303 E22.70775
G1 X75.591 Y131.796 E22.72555
G1 X75.394 Y131.139 E22.74836
G1 X75.29 Y130.745 E22.76192
G1 X75.141 Y130.094 E22.78413
G1 X75.079 Y129.776 E22.7949
G1 X74.967 Y129.074 E22.81855
G1 X74.916 Y128.661 E22.83239
G1 X74.854 Y127.961 E22.85576
G1 X74.831 Y127.535 E22.86995
G1 X74.818 Y127.161 E22.8824
G1 X74.8 Y126.056 E22.91916
G1 X74.801 Y115.984 E23.25415
G1 X74.818 Y114.961 E23.28818
G1 X74.852 Y114.286 E23.31066
G1 X74.901 Y113.696 E23.33035
G1 X74.966 Y113.112 E23.3499
G1 X74.98 Y113.013 E23.35322
G1 X75.13 Y112.195 E23.38088
G1 X75.281 Y111.526 E23.40369
G1 X75.958 Y108.751 E23.4987
G1 X76.496 Y106.252 E23.58372
G1 X76.963 Y103.735 E23.66886
G1 X77.349 Y101.269 E23.75188
G1 X77.671 Y98.745 E23.83651
G1 X77.923 Y96.197 E23.92167
G1 X78.101 Y93.66 E24.00626
G1 X78.208 Y91.129 E24.09051
G1 X78.244 Y88.555 E24.17613
G1 X78.245 Y88.005 E24.19443
G1 X78.256 Y87.34 E24.21655
G1 X78.311 Y86.439 E24.24657
G1 X78.446 Y85.546 E24.27661
